icons/poison.svg

<svg width="48" height="48" viewBox="0 0 48 48" fill="none" xmlns="http://www.w3.org/2000/svg">
<path fill-rule="evenodd" clip-rule="evenodd" d="M17 5C17 4.44772 17.4477 4 18 4H30C30.5523 4 31 4.44772 31 5V9C31 9.55228 30.5523 10 30 10H28V14C31.866 14 35 17.134 35 21V41C35 42.6569 33.6569 44 32 44H16C14.3431 44 13 42.6569 13 41V21C13 17.134 16.134 14 20 14V10H18C17.4477 10 17 9.55228 17 9V5ZM22 10H26V15C26 15.5523 26.4477 16 27 16H28C30.419 16 32.4367 17.7178 32.9 20H15.1C15.5633 17.7178 17.581 16 20 16H21C21.5523 16 22 15.5523 22 15V10ZM15 22V41C15 41.5523 15.4477 42 16 42H32C32.5523 42 33 41.5523 33 41V22H15ZM19 6V8H29V6H19ZM20.4644 29.8293L22.5858 31.9507L20.4648 34.0717L19.7574 33.3643L18.3432 34.7785L19.0506 35.4859L19.0502 35.4863L20.4645 36.9005L20.4648 36.9001L21.1717 37.6069L22.5859 36.1927L21.8791 35.4859L24 33.3649L26.1213 35.4862L25.4142 36.1934L26.8284 37.6076L29.6568 34.7791L28.2426 33.3649L27.5356 34.072L25.4142 31.9507L27.536 29.8289L28.2427 30.5356L29.6569 29.1214L26.8285 26.293L25.4143 27.7072L26.1218 28.4147L24 30.5365L21.8786 28.415L22.5858 27.7079L21.1716 26.2936L20.4644 27.0008L19.0502 28.415L18.3431 29.1221L19.7574 30.5363L20.4644 29.8293Z" fill="black"/>
</svg>

<svg
  xmlns="http://www.w3.org/2000/svg"
  width="24"
  height="24"
  viewBox="0 0 24 24"
  fill="none"
  stroke="currentColor"
  stroke-width="2"
  stroke-linecap="round"
  stroke-linejoin="round"
>
  <path
    fill-rule="evenodd"
    d="M17 5a1 1 0 0 1 1-1h12a1 1 0 0 1 1 1v4a1 1 0 0 1-1 1h-2v4a7 7 0 0 1 7 7v20a3 3 0 0 1-3 3H16a3 3 0 0 1-3-3V21a7 7 0 0 1 7-7v-4h-2a1 1 0 0 1-1-1zm5 5h4v5a1 1 0 0 0 1 1h1a5 5 0 0 1 4.9 4H15.1a5 5 0 0 1 4.9-4h1a1 1 0 0 0 1-1zm-7 12v19a1 1 0 0 0 1 1h16a1 1 0 0 0 1-1V22zm4-16v2h10V6zm1.464 23.83 2.122 2.12-2.121 2.122-.708-.708-1.414 1.415.708.707 1.414 1.415.707.706 1.414-1.414-.707-.707L24 33.365l2.121 2.121-.707.707 1.414 1.415 2.829-2.829-1.414-1.414-.707.707-2.122-2.121 2.122-2.122.707.707 1.414-1.415-2.829-2.828-1.414 1.414.708.708L24 30.537l-2.121-2.122.707-.707-1.414-1.414-.708.707-1.414 1.414-.707.707 1.414 1.414z"
    clip-rule="evenodd"
  />
</svg>
